X: 44
T: String Quartet No. 11 in F Minor, Op. 95 (Serioso) mvt 3
C: Ludwig van Beethoven
%%abc-version 2.0
%%abcx-abcm2ps-target-version 5.9.1 (29 Sep 2008)
%%abc-creator hum2abc beta
%%abcx-conversion-date 2021/01/27 10:01:10
%%abc-edited-by Craig Stuart Sapp
%%abcx-initial-encoding-date 2004/09/11/
%%gracespace 0 6 6
%%humdrum-veritas 2690858001
%%humdrum-veritas-data 2091959680
%%linebreak <none>
%%barnumbers 0
L: 1/8
M: 3/4
N: Derived from quartet11-3.krn
Q: "Allegro assai vivace ma serioso" 1/4=144
%%staves [1 2 3 4]
V: 1 clef=treble
V: 2 clef=treble
V: 3 clef=alto
V: 4 clef=bass
K: Ab
[V:1] =dz/d/c2=B z | 
[V:2] Az/A/A2A z | 
[V:3] Fz/F/F2F z | 
[V:4] =B,z/B,/C2=D z | 
[V:1] z6 | 
[V:2] z6 | 
[V:3] z6 | 
[V:4] z6 | 
[V:1] fz/f/e2=d z | 
[V:2] =dz/d/c2=B z | 
[V:3] Fz/F/G2A z | 
[V:4] =Dz/D/E2F z | 
[V:1] z6 | 
[V:2] z6 | 
[V:3] z6 | 
[V:4] z6 | 
[V:1] az/a/g3f | 
[V:2] z2[G3=d3]z | 
[V:3] z2[G,3=D3]z | 
[V:4] z2=B,,3z | 
[V:1] ez/e/=d3c | 
[V:2] z2E3z | 
[V:3] z2G,3z | 
[V:4] z2[C,,3C,3]z | 
[V:1] Bz/A/ Gz/F/ Ez/=D/ | 
[V:2] z F z C z =B, | 
[V:3] z C z A, z G, | 
[V:4] F,,2F,,3G,, | 
[V:1] C2z2z2 | 
[V:2] C2z2z2 | 
[V:3] C,2z2z2 | 
[V:4] B,,z/A,,/ G,,z/F,,/ E,,z/=D,,/ | 
[V:1] z6 | 
[V:2] z6 | 
[V:3] C,z/B,/C2D z | 
[V:4] C,,z/G,/A,2B, z | 
[V:1] gz/g/f2=e z | 
[V:2] Bz/B/A2G z | 
[V:3] z6 | 
[V:4] z6 | 
[V:1] z6 | 
[V:2] z6 | 
[V:3] Gz/G/A2B z | 
[V:4] =Ez/E/F2G2 | 
[V:1] d'z/d'/c'2b z | 
[V:2] bz/b/a2g z | 
[V:3] z6 | 
[V:4] z6 | 
[V:1] z2g3z | 
[V:2] z2[G,3G3]z | 
[V:3] dz/d/c3.B | 
[V:4] z2=E,3z | 
[V:1] z2c3z | 
[V:2] z2A,3z | 
[V:3] Az/A/G3.F | 
[V:4] z2F,3z | 
[V:1] z d z d z c | 
[V:2] z F z F z =E | 
[V:3] Ez/D/ Cz/B,/ A,z/G,/ | 
[V:4] B,,2B,,3C, | 
[V:1] Fz/f/ fz/g/ az/b/ | 
[V:2] Fz/A/ Az/=e/ fz/g/ | 
[V:3] F,2z z/ C,/ C,z/C,/ | 
[V:4] E,z/D,/ C,z/B,,/ A,,z/G,,/ | 
[V:1] c'z/c'/b3a | 
[V:2] az/a/g3f | 
[V:3] C,2C,4 | 
[V:4] F,,2[F,,4C,4]- | 
[V:1] az/a/g3f | 
[V:2] cz/c/B3A | 
[V:3] =D,2=E,2F,2 | 
[V:4] [F,,2C,2][F,,4C,4] | 
[V:1] =ez/g/ gz/a/ az/b/ | 
[V:2] Gz/=e/ ez/f/ fz/g/ | 
[V:3] Dz/D/C3B, | 
[V:4] B,z/B,/A,3G, | 
[V:1] bz/B/ Bz/c/ cz/d/ | 
[V:2] gz/G/ Gz/A/ Az/B/ | 
[V:3] B,z/B,/A,3G, | 
[V:4] G,z/G,/F,3=E, | 
[V:1] d'z/d'/c'3b | 
[V:2] bz/b/a3g | 
[V:3] F,z/G/ Gz/A/ Az/B/ | 
[V:4] =E,z/=E/ Ez/F/ Fz/G/ | 
[V:1] bz/b/a3g | 
[V:2] gz/g/f3=e | 
[V:3] Bz/B,/ B,z/C/ Cz/D/ | 
[V:4] G,z/G,,/ G,,z/A,,/ A,,z/B,,/ | 
[V:1] fz/a/ az/b/ bz/c'/ | 
[V:2] fz/f/ fz/g/ gz/a/ | 
[V:3] Cz/C/B,3A, | 
[V:4] A,,z/A,/G,3F, | 
[V:1] c'z/=d'/ d'z/=e'/ e'z/f'/ | 
[V:2] cz/=d/ dz/=e/ ez/f/ | 
[V:3] [C,C]z/[C,/C/][C,3B,3][C,A,] | 
[V:4] A,,z/A,,/G,,3F,, | 
[V:1] f'z/f'/e'3d' | 
[V:2] fz/a/_g3f | 
[V:3] [D,2A,2][D,4D4] | 
[V:4] D,,2D,,4 | 
[V:1] d'z/d'/=b3_b | 
[V:2] bz/B/A3_G | 
[V:3] Dz/D/F3_G | 
[V:4] _G,,2G,,4 | 
[V:1] bz/b/ az/f/ dz/c/ | 
[V:2] =Gz/=e/ fz/f/ dz/c/ | 
[V:3] [=G,=G]z/C/ Cz/F/ Dz/C/ | 
[V:4] =E,,z/C,,/ F,,z/F,/ D,z/C,/ | 
[V:1] =Bz/c/ Dz/C/ Cz/C/ | 
[V:2] =Bz/c/ Dz/C/ Cz/C/ | 
[V:3] =B,z/C/ D,z/C,/ C,z/C,/ | 
[V:4] =B,,z/C,/ D,,z/C,,/ C,,z/C,,/ | 
[V:1] Cz/C/=E3F | 
[V:2] z2B,3A, | 
[V:3] z2G,3F, | 
[V:4] z2C,,4 | 
[V:1] C>CG3A | 
[V:2] z2=E3F | 
[V:3] z2B,3A, | 
[V:4] z2C,,4 | 
[V:1] Bz/c/.d2z2 | 
[V:2] Dz/D/.D2z2 | 
[V:3] F,z/B,/.B,2z2 | 
[V:4] B,,z/B,,/.B,,2z2 | 
[V:1] dz/=e/.f2z2 | 
[V:2] Bz/B/.c2z2 | 
[V:3] =Ez/E/.A2z2 | 
[V:4] G,,z/G,,/.F,,2z2 | 
[V:1] fz/g/ az/b/c'2- | 
[V:2] A,2A,4- | 
[V:3] F,2F,4- | 
[V:4] F,,z/E,,/ D,,z/D,,/ D,,z/C,,/ | 
[V:1] c'z/a/ fz/d/ cz/=e/ | 
[V:2] A,z/A/ Az/A/ Bz/c/ | 
[V:3] F,z/F,/ F,z/F,/ G,z/G,/ | 
[V:4] C,,z/C,/ C,z/C,/ C,z/C,/ | 
[V:1] fz/F/ Fz/G/ Az/B/ | 
[V:2] fz/g/ az/b/c'2- | 
[V:3] [F,2A,2][F,4A,4]- | 
[V:4] F,,z/E,,/ E,,z/D,,/ D,,z/C,,/ | 
[V:1] cz/A/ Fz/D/ Cz/=E/ | 
[V:2] c'z/a/ fz/d/ cz/=e/ | 
[V:3] [F,A,]z/[F,/A,/] [F,A,]z/[F,/A,/] [G,B,]z/C,/ | 
[V:4] C,,z/C,/ C,z/C,,/ C,,z/C,,/ | 
[V:1] Fz/C/C2z2 | 
[V:2] fz/c/c2z2 | 
[V:3] F,z/C,/C,2z2 | 
[V:4] F,,>C,,C,,2z2 | 
[V:1] Az/F/F2z2 | 
[V:2] az/f/f2z2 | 
[V:3] A,z/F,/F,2z2 | 
[V:4] A,,z/F,,/F,,2z2 | 
[V:1] fz/c/.A2.c2 |[1 
[V:2] fz/c/.A2.c2 | 
[V:3] Fz/C/.A,2.C2 | 
[V:4] F,z/C,/.A,,2.C,2 | 
[V:1] .F2=d4 :|][2 
[V:2] .F2F4 :|]  
[V:3] .F,2A4 :|]  
[V:4] .F,,2=B,4 :|]  
[V:1] .F2_G4- | 
[V:2] .F2_G4- | 
[V:3] .F,2_G,4- | 
[V:4] .F,,2_G,,4- | 
[V:1] G._G GD B,G | 
[V:2] G6 | 
[V:3] G,6 | 
[V:4] G,,6 | 
[V:1] z ._G GD B,G | 
[V:2] d6 | 
[V:3] B,6 | 
[V:4] _G,6 | 
[V:1] z ._G GD B,G | 
[V:2] d6 | 
[V:3] B,6 | 
[V:4] _G,6 | 
[V:1] z ._G GE =B,G | 
[V:2] e6 | 
[V:3] _C6 | 
[V:4] =B,,6 | 
[V:1] z .=G G=E DG | 
[V:2] =e6 | 
[V:3] [G,6G6] | 
[V:4] B,,6 | 
[V:1] z .A AE =B,A | 
[V:2] e6 | 
[V:3] A,6 | 
[V:4] =B,,6 | 
[V:1] z .B B_G DB | 
[V:2] d4_g2 | 
[V:3] B,6 | 
[V:4] D,6 | 
[V:1] z .A AF DF | 
[V:2] f2a2.=B2 | 
[V:3] =B,4A,2 | 
[V:4] D,6 | 
[V:1] ._G.d dB e=B | 
[V:2] B2z2z2 | 
[V:3] _G,2z2z2 | 
[V:4] _G,,2z2z2 | 
[V:1] dB e=B BA | 
[V:2] z6 | 
[V:3] z6 | 
[V:4] z6 | 
[V:1] dB B_G =BA | 
[V:2] z6 | 
[V:3] z6 | 
[V:4] z6 | 
[V:1] AF B_G BG | 
[V:2] z6 | 
[V:3] z6 | 
[V:4] z6 | 
[V:1] Bd dB _Gd | 
[V:2] B6 | 
[V:3] _G,6 | 
[V:4] _G,6 | 
[V:1] z d dB _Gd | 
[V:2] b6 | 
[V:3] _G,6 | 
[V:4] D6 | 
[V:1] z d dB _Gd | 
[V:2] b6 | 
[V:3] _G,6 | 
[V:4] D6 | 
[V:1] z .e e=B _Ge | 
[V:2] =b6 | 
[V:3] =B,6 | 
[V:4] E6 | 
[V:1] z .=e e=G G,e | 
[V:2] d'6 | 
[V:3] B,6 | 
[V:4] =E6 | 
[V:1] z .e e=B Ae | 
[V:2] =b6 | 
[V:3] =B,6 | 
[V:4] E6 | 
[V:1] z .d dB _Gd | 
[V:2] b6 | 
[V:3] D6 | 
[V:4] D4_G2 | 
[V:1] z .d d=B Ad | 
[V:2] a2_c'2.f2 | 
[V:3] D,6 | 
[V:4] F2A2.=B,2 | 
[V:1] d2dB e=B | 
[V:2] _g2z2z2 | 
[V:3] _G,2z2z2 | 
[V:4] B,2z2z2 | 
[V:1] dB e=B BA | 
[V:2] z6 | 
[V:3] z6 | 
[V:4] z6 | 
[V:1] dB B_G =BA | 
[V:2] z6 | 
[V:3] z6 | 
[V:4] z6 | 
[V:1] AF =A_G AG | 
[V:2] z6 | 
[V:3] z6 | 
[V:4] z6 | 
[V:1]  [K:D] .=A.A AF =D=A | 
[V:2]  [K:D] =D6 | 
[V:3]  [K:D] =D,6 | 
[V:4]  [K:D] =D,,6 | 
[V:1] z .A AF DA | 
[V:2] a6 | 
[V:3] [F,6D6] | 
[V:4] D,6 | 
[V:1] z .A AF DA | 
[V:2] a6 | 
[V:3] [F,6D6] | 
[V:4] =C,6 | 
[V:1] z .B BG DB | 
[V:2] b6 | 
[V:3] [G,6D6] | 
[V:4] B,,6 | 
[V:1] z .=c cA ^Dc | 
[V:2] [A6=c'6] | 
[V:3] ^D,6 | 
[V:4] F,,6 | 
[V:1] z .B BE G,B | 
[V:2] b6 | 
[V:3] [E,6G,6] | 
[V:4] G,,6 | 
[V:1] z .A AF =DA | 
[V:2] a4d'2 | 
[V:3] F,6 | 
[V:4] A,,6 | 
[V:1] z .A AG EA | 
[V:2] c'2e'2g2 | 
[V:3] E,2G,2A,2 | 
[V:4] A,,6 | 
[V:1] A2af bg | 
[V:2] f2z2z2 | 
[V:3] A,2z2z2 | 
[V:4] D,,2z2z2 | 
[V:1] af bg ge | 
[V:2] z6 | 
[V:3] z6 | 
[V:4] z6 | 
[V:1] af fA gB | 
[V:2] z6 | 
[V:3] z6 | 
[V:4] z6 | 
[V:1] eG cE dF | 
[V:2] z6 | 
[V:3] z6 | 
[V:4] z6 | 
[V:1] .D.A AF DA | 
[V:2] D6 | 
[V:3] D,6 | 
[V:4] D,,6 | 
[V:1] z .A AF DA | 
[V:2] A6 | 
[V:3] F,6 | 
[V:4] D,6 | 
[V:1] z .A AF DA | 
[V:2] A6 | 
[V:3] F,6 | 
[V:4] D,6 | 
[V:1] z .^A AF EA | 
[V:2] ^A6 | 
[V:3] E,6 | 
[V:4] C,6 | 
[V:1] z .B BF DB | 
[V:2] B6 | 
[V:3] D,6 | 
[V:4] B,,6 | 
[V:1] z .c cF Ec | 
[V:2] c6 | 
[V:3] C,4F,2 | 
[V:4] ^A,,6 | 
[V:1] z .d dF Dd | 
[V:2] d6 | 
[V:3] F,6 | 
[V:4] B,,6 | 
[V:1] z .e eB Ee | 
[V:2] e6 | 
[V:3] B,6 | 
[V:4] G,,6 | 
[V:1] z .e eB Ee | 
[V:2] [E6e6] | 
[V:3] [E,6B,6] | 
[V:4] G,,6 | 
[V:1] z .g gB Eg | 
[V:2] [E6c6] | 
[V:3] [E,6G,6] | 
[V:4] B,,6 | 
[V:1] z .e eB Ee | 
[V:2] [E6e6] | 
[V:3] [E,6B,6] | 
[V:4] G,,6 | 
[V:1] z .g gB Eg | 
[V:2] [E6c6] | 
[V:3] [E,6G,6] | 
[V:4] B,,6 | 
[V:1] z .f fd Bf | 
[V:2] d6 | 
[V:3] B,6 | 
[V:4] F,,6 | 
[V:1] z .F FC ^A,F | 
[V:2] c6 | 
[V:3] _B,6 | 
[V:4] F,,6- | 
[V:1] z .G GE ^A,G | 
[V:2] [e6g6] | 
[V:3] =A,6 | 
[V:4] F,,6 | 
[V:1] z .F FD B,F | 
[V:2] [d6f6] | 
[V:3] B,6 | 
[V:4] B,,6 | 
[V:1] z .F FD B,F | 
[V:2] F6 | 
[V:3] F,6 | 
[V:4] B,,6 | 
[V:1] z .B BF DB | 
[V:2] B6 | 
[V:3] B,6 | 
[V:4] B,,6 | 
[V:1] Bf fd dB | 
[V:2] B2z2z2 | 
[V:3] B,2z2z2 | 
[V:4] B,,2z2z2 | 
[V:1] dB BF dB | 
[V:2] z6 | 
[V:3] z6 | 
[V:4] z6 | 
[V:1] BF FD BF | 
[V:2] z6 | 
[V:3] z6 | 
[V:4] z6 | 
[V:1] FD DB, DB, | 
[V:2] z6 | 
[V:3] z6 | 
[V:4] z6 | 
[V:1] B,2B,4 | 
[V:2] z6 | 
[V:3] z6 | 
[V:4] z6 | 
[V:1] B,2B,4 | 
[V:2] z6 | 
[V:3] z6 | 
[V:4] z6 | 
[V:1] z6 | 
[V:2] D2D4 | 
[V:3] B,2B,4 | 
[V:4] z6 | 
[V:1] [D2d2][D4d4] | 
[V:2] _A2A4 | 
[V:3] =F2F4 | 
[V:4] B,2B,4 | 
[V:1] dz/d/=c2B z | 
[V:2] _Az/A/^G2G z | 
[V:3] =Fz/F/F2F z | 
[V:4] B,z/B,/=C2D z | 
[V:1] z6 | 
[V:2] z6 | 
[V:3] z6 | 
[V:4] z6 | 
[V:1] =fz/f/_e2d z | 
[V:2] dz/d/=c2B z | 
[V:3] =Fz/F/G2^G z | 
[V:4] Dz/D/_E2=F z | 
[V:1] z6 | 
[V:2] z6 | 
[V:3] z6 | 
[V:4] z6 | 
[V:1] _az/a/=g3=f | 
[V:2] z2[G3d3]z | 
[V:3] z2[=G,3D3]z | 
[V:4] z2B,,3z | 
[V:1] _ez/e/=d3=c | 
[V:2] z2^D3z | 
[V:3] z2G,3z | 
[V:4] z2=C,3z | 
[V:1] _Bz/_A/ Gz/=F/ _Ez/D/ | 
[V:2] z =F z =C z B, | 
[V:3] z =C z _A, z =G, | 
[V:4] =F,,2F,,3G,, | 
[V:1] =C2z2z2 | 
[V:2] =C2z2z2 | 
[V:3] =C,2z2z2 | 
[V:4] _B,,z/_A,,/ G,,z/=F,,/ _E,,z/D,,/ | 
[V:1]  [K:Ab] z6 | 
[V:2]  [K:Ab] z6 | 
[V:3]  [K:Ab] =C,z/B,/=C2D z | 
[V:4]  [K:Ab] =C,,z/G,/A,2B, z | 
[V:1] gz/g/=f2=e z | 
[V:2] Bz/B/A2G z | 
[V:3] z6 | 
[V:4] z6 | 
[V:1] z6 | 
[V:2] z6 | 
[V:3] Gz/G/A2B z | 
[V:4] =Ez/E/F2G z | 
[V:1] d'z/d'/c'2b z | 
[V:2] bz/b/a2g z | 
[V:3] z6 | 
[V:4] z6 | 
[V:1] z2g3z | 
[V:2] z2[G,3G3]z | 
[V:3] dz/d/c3B | 
[V:4] z2=E,3z | 
[V:1] z2c3z | 
[V:2] z2A,3z | 
[V:3] Az/A/G3F | 
[V:4] z2F,3z | 
[V:1] z d z d z c | 
[V:2] z F z F z =E | 
[V:3] Ez/D/ Cz/B,/ A,z/G,/ | 
[V:4] B,,2B,,3C, | 
[V:1] Fz/f/ fz/g/ az/b/ | 
[V:2] Fz/A/ Az/=e/ fz/g/ | 
[V:3] F,2z z/ C,/ C,z/C,/ | 
[V:4] E,z/D,/ C,z/B,,/ A,,z/G,,/ | 
[V:1] c'z/c'/b3a | 
[V:2] az/a/g3f | 
[V:3] C,2C,4 | 
[V:4] F,,2[F,,4C,4]- | 
[V:1] az/a/g3f | 
[V:2] cz/c/B3A | 
[V:3] =D,2=E,2F,2 | 
[V:4] [F,,2C,2][F,,4C,4] | 
[V:1] =ez/g/ gz/a/ az/b/ | 
[V:2] Gz/=e/ ez/f/ fz/g/ | 
[V:3] Dz/D/C3B, | 
[V:4] B,z/B,/A,3G, | 
[V:1] bz/B/ Bz/c/ cz/d/ | 
[V:2] gz/G/ Gz/A/ Az/B/ | 
[V:3] B,z/B,/A,3G, | 
[V:4] G,z/G,/F,3=E, | 
[V:1] d'z/d'/c'3b | 
[V:2] bz/b/a3g | 
[V:3] G,z/G/ Gz/A/ Az/B/ | 
[V:4] =E,z/=E/ Ez/F/ Fz/G/ | 
[V:1] bz/b/a3g | 
[V:2] gz/g/f3=e | 
[V:3] Bz/B,/ B,z/C/ Cz/D/ | 
[V:4] G,z/G,,/ G,,z/A,,/ A,,z/B,,/ | 
[V:1] fz/a/ az/b/ bz/c'/ | 
[V:2] fz/f/ fz/g/ gz/a/ | 
[V:3] Cz/C/B,3A, | 
[V:4] A,,z/A,/G,3F, | 
[V:1] c'z/=d'/ d'z/=e'/ e'z/f'/ | 
[V:2] cz/=d/ dz/=e/ ez/f/ | 
[V:3] [C,C]z/[C,/C/][C,3B,3][C,A,] | 
[V:4] A,,z/A,,/G,,3F,, | 
[V:1] f'z/f'/e'3d' | 
[V:2] fz/a/_g3f | 
[V:3] [D,2A,2][D,4D4] | 
[V:4] D,,2D,,4 | 
[V:1] d'z/d'/=b3_b | 
[V:2] bz/B/A3_G | 
[V:3] Dz/D/F3_G | 
[V:4] _G,,2G,,4 | 
[V:1] bz/b/ az/f/ dz/c/ | 
[V:2] =Gz/=e/ fz/f/ dz/c/ | 
[V:3] [=G,=G]z/C/ Cz/F/ Dz/C/ | 
[V:4] =E,,z/C,,/ F,,z/F,/ D,z/C,/ | 
[V:1] =Bz/c/ Dz/C/ Cz/C/ | 
[V:2] =Bz/c/ Dz/C/ Cz/C/ | 
[V:3] =B,z/C/ D,z/C,/ C,z/C,/ | 
[V:4] =B,,z/C,/ D,,z/C,,/ C,,z/C,,/ | 
[V:1] C/z/C/=E2>F2 z/ | 
[V:2] z2B,3A, | 
[V:3] z2_G,3F, | 
[V:4] z2C,,4 | 
[V:1] Cz/C/G3A | 
[V:2] z2=E3F | 
[V:3] z2B,3A, | 
[V:4] z2C,,4 | 
[V:1] Bz/c/d2z2 | 
[V:2] Dz/D/D2z2 | 
[V:3] F,z/B,/B,2z2 | 
[V:4] B,,z/B,,/B,,2z2 | 
[V:1] d>=ef2z2 | 
[V:2] B>Bc2z2 | 
[V:3] =E>EA2z2 | 
[V:4] G,,>G,,F,,2z2 | 
[V:1] fz/g/ az/b/c'2- | 
[V:2] A,2A,4- | 
[V:3] F,2F,4- | 
[V:4] F,,z/E,,/ D,,z/D,,/ D,,z/C,,/ | 
[V:1] c'z/a/ fz/d/ cz/=e/ | 
[V:2] A,z/A/ Az/A/ Bz/c/ | 
[V:3] F,z/F,/ F,z/F,/ G,z/G,/ | 
[V:4] C,,z/C,/ C,z/C,/ C,z/C,/ | 
[V:1] fz/F/ Fz/G/ Az/B/ | 
[V:2] fz/g/ az/b/c'2- | 
[V:3] [F,2A,2][F,4A,4]- | 
[V:4] F,,z/E,,/ E,,z/D,,/ D,,z/C,,/ | 
[V:1] cz/A/ Fz/D/ Cz/=E/ | 
[V:2] c'z/a/ fz/d/ cz/=e/ | 
[V:3] [F,A,]z/[F,/A,/] [F,A,]z/[F,/A,/] [G,B,]z/C,/ | 
[V:4] C,,z/C,/ C,z/C,,/ C,,z/C,,/ | 
[V:1] Fz/C/C2z2 | 
[V:2] fz/c/c2z2 | 
[V:3] F,z/C,/C,2z2 | 
[V:4] F,,z/C,,/C,,2z2 | 
[V:1] Az/F/F2z2 | 
[V:2] az/f/f2z2 | 
[V:3] A,z/F,/F,2z2 | 
[V:4] A,,z/F,,/F,,2z2 | 
[V:1] fz/c/.A2.c2 | 
[V:2] fz/c/.A2.c2 | 
[V:3] Fz/C/.A,2.C2 | 
[V:4] F,z/C,/.A,,2.C,2 | 
[V:1] .F2=d4 | 
[V:2] .F2F4 | 
[V:3] .F,2A4 | 
[V:4] .F,,2=B,4 | 
[V:1] .=E2b4 | 
[V:2] .B,2B4 | 
[V:3] .B2G,4 | 
[V:4] .G,2G,,4 | 
[V:1] .=A2!fermata![A4_g'4] | 
[V:2] ._G2!fermata!_g4 | 
[V:3] .E2!fermata!E,4 | 
[V:4] .E,2!fermata!E,,4 | 
[V:1]  [K:D] =DA AF =DA | 
[V:2]  [K:D] =D6 | 
[V:3]  [K:D] =D,6 | 
[V:4]  [K:D] =D,,6 | 
[V:1] z .A AF =DA | 
[V:2] a6 | 
[V:3] [F,6D6] | 
[V:4] D,6 | 
[V:1] z .A AF DA | 
[V:2] a6 | 
[V:3] [F,6D6] | 
[V:4] =C,6 | 
[V:1] z .B BG DB | 
[V:2] b6 | 
[V:3] [G,6D6] | 
[V:4] B,,6 | 
[V:1] z .=c cA ^Dc | 
[V:2] [A6=c'6] | 
[V:3] ^D,6 | 
[V:4] F,,6 | 
[V:1] z .B BE G,B | 
[V:2] b6 | 
[V:3] [E,6G,6] | 
[V:4] G,,6 | 
[V:1] z .A AF =DA | 
[V:2] a4d'2 | 
[V:3] F,6 | 
[V:4] A,,6 | 
[V:1] z .A AG EA | 
[V:2] c'2e'2.g2 | 
[V:3] E,2G,2.A,2 | 
[V:4] A,,6 | 
[V:1] A2af bg | 
[V:2] f2z2z2 | 
[V:3] A,2z2z2 | 
[V:4] D,,2z2z2 | 
[V:1] af bg ge | 
[V:2] z6 | 
[V:3] z6 | 
[V:4] z6 | 
[V:1] af fA gB | 
[V:2] z6 | 
[V:3] z6 | 
[V:4] z6 | 
[V:1] eG cE dF | 
[V:2] z6 | 
[V:3] z6 | 
[V:4] z6 | 
[V:1] DA AF DA | 
[V:2] D6 | 
[V:3] D,6 | 
[V:4] D,,6 | 
[V:1] z .A AF DA | 
[V:2] [D6F6] | 
[V:3] A6 | 
[V:4] D,6 | 
[V:1] z .A AF DA | 
[V:2] [D6F6] | 
[V:3] A6 | 
[V:4] =C,6 | 
[V:1] z .B BG DB | 
[V:2] [D6G6] | 
[V:3] B6 | 
[V:4] B,,6 | 
[V:1] z .=c cA ^Dc | 
[V:2] A6 | 
[V:3] [^D6=c6] | 
[V:4] F,6 | 
[V:1] z .^G G=D B,G | 
[V:2] ^G6 | 
[V:3] [=D6B6] | 
[V:4] =F,6 | 
[V:1] z .=G G=F DG | 
[V:2] =f6 | 
[V:3] [G,6D6] | 
[V:4] B,,6 | 
[V:1] z .G G^D =CG | 
[V:2] ^d6 | 
[V:3] G,6 | 
[V:4] =C,6 | 
[V:1]  [K:Eb] G2ge af | 
[V:2]  [K:Eb] e2z2z2 | 
[V:3]  [K:Eb] G,2z2z2 | 
[V:4]  [K:Eb] C,2z2z2 | 
[V:1] fd g=e ec | 
[V:2] z6 | 
[V:3] z6 | 
[V:4] z6 | 
[V:1] z .=e ec Ge | 
[V:2] C6 | 
[V:3] C,6 | 
[V:4] B,,6 | 
[V:1] z .=e ec Ge | 
[V:2] G6 | 
[V:3] G,6 | 
[V:4] B,,6 | 
[V:1] z .=e ec Ge | 
[V:2] G6 | 
[V:3] G,6 | 
[V:4] B,,6 | 
[V:1] z .f fc =Af | 
[V:2] =A6 | 
[V:3] =A,6 | 
[V:4] =A,,6 | 
[V:1] z .g g^c Bg | 
[V:2] B6 | 
[V:3] B,6 | 
[V:4] _F,,6 | 
[V:1] z .f fd =Af | 
[V:2] =A6 | 
[V:3] =A,6 | 
[V:4] F,,6 | 
[V:1] z .=e ec Ge | 
[V:2] G4c2 | 
[V:3] G,4C2 | 
[V:4] G,,6 | 
[V:1] z .f fd Gg | 
[V:2] _c2d2.F2 | 
[V:3] _C2D2.F,2 | 
[V:4] G,,6 | 
[V:1] g2g=e af | 
[V:2] _F2z2z2 | 
[V:3] _F,2z2z2 | 
[V:4] C,2z2z2 | 
[V:1] af fd g=e | 
[V:2] c6 | 
[V:3] C6 | 
[V:4] z6 | 
[V:1] z2bg c'a | 
[V:2] z6 | 
[V:3] z6 | 
[V:4] C,2z2z2 | 
[V:1] c'a af bg | 
[V:2] c6 | 
[V:3] C6 | 
[V:4] z6 | 
[V:1] z6 | 
[V:2] _dz/c/ cz/B/B2 | 
[V:3] _Dz/C/ Cz/B,/B,2 | 
[V:4] z6 | 
[V:1] b6 | 
[V:2] z6 | 
[V:3] z6 | 
[V:4] B,,z/A,,/ A,,z/G,,/G,,2 | 
[V:1] _c'6 | 
[V:2] Gz/F/ Fz/=E/E2 | 
[V:3] G,z/F,/ F,z/=E,/E,2 | 
[V:4] z6 | 
[V:1] c'6 | 
[V:2] z2_Fz/=F/ Fz/G/ | 
[V:3] z2Cz/D/ Dz/_F/ | 
[V:4] _F,,z/D,,/ D,,z/C,,/ C,,z/C,/ | 
[V:1]  [K:Ab] c'z/c'/b3a | 
[V:2]  [K:Ab] Az/a/g3f | 
[V:3]  [K:Ab] Fz/F,/G,3A, | 
[V:4]  [K:Ab] [F,,2C,2][F,,4C,4] | 
[V:1] az/a/g3f | 
[V:2] cz/c/B3A | 
[V:3] =D,2=E,2F,2 | 
[V:4] [=F,,2C,2][F,,4C,4] | 
[V:1] =ez/g/ gz/a/ az/b/ | 
[V:2] Gz/=e/ ez/f/ fz/g/ | 
[V:3] Dz/D/C3B, | 
[V:4] B,z/B,/A,3G, | 
[V:1] bz/B/ Bz/c/ cz/d/ | 
[V:2] gz/G/ Gz/A/ Az/B/ | 
[V:3] B,z/B,/A,3G, | 
[V:4] G,z/G,/F,3=E, | 
[V:1] d'z/d'/c'3b | 
[V:2] bz/b/a3g | 
[V:3] G,z/G/ Gz/A/ Az/B/ | 
[V:4] =E,z/=E/ Ez/F/ Fz/G/ | 
[V:1] bz/b/a3g | 
[V:2] gz/g/f3=e | 
[V:3] Bz/B,/ B,z/C/ Cz/D/ | 
[V:4] G,z/G,,/ G,,z/A,,/ A,,z/B,,/ | 
[V:1] fz/a/ az/b/ bz/c'/ | 
[V:2] fz/f/ fz/g/ gz/a/ | 
[V:3] Cz/C/B,3A, | 
[V:4] A,,z/A,/G,3F, | 
[V:1] c'z/=d'/ d'z/=e'/ e'z/f'/ | 
[V:2] cz/=d/ dz/=e/ ez/f/ | 
[V:3] [C,C]z/[C,/C/][C,3B,3][C,A,] | 
[V:4] A,,z/A,,/G,,3F,, | 
[V:1] f'z/f'/e'3d' | 
[V:2] fz/a/_g3f | 
[V:3] [D,2A,2][D,4D4] | 
[V:4] D,,2D,,4 | 
[V:1] d'z/d'/_c'3b | 
[V:2] bz/B/A3_G | 
[V:3] Dz/D/F3_G | 
[V:4] _G,,2G,,4 | 
[V:1] bz/b/ az/f/ dz/c/ | 
[V:2] =Gz/=e/ fz/f/ dz/c/ | 
[V:3] [=G,=G]z/C/ Cz/F/ Dz/C/ | 
[V:4] =E,,z/C,,/ F,,z/F,/ D,z/C,/ | 
[V:1] =Bz/c/ Dz/C/ Cz/C/ | 
[V:2] =Bz/c/ Dz/C/ Cz/C/ | 
[V:3] =B,z/C/ D,z/C,/ C,z/C,/ | 
[V:4] =B,,z/C,/ D,,z/C,,/ C,,z/C,,/ | 
[V:1] Cz/C/=E3F | 
[V:2] z2B,3A, | 
[V:3] z2G,3F, | 
[V:4] z2C,,4 | 
[V:1] Cz/C/G3A | 
[V:2] z2=E3F | 
[V:3] z2B,3A, | 
[V:4] z2C,,4 | 
[V:1] Bz/c/d2z2 | 
[V:2] Dz/D/D2z2 | 
[V:3] F,z/B,/B,2z2 | 
[V:4] B,,z/B,,/B,,2z2 | 
[V:1] dz/=e/f2z2 | 
[V:2] Bz/B/c2z2 | 
[V:3] =Ez/E/A2z2 | 
[V:4] G,,z/G,,/F,,2z2 | 
[V:1] fz/g/ az/b/c'2- | 
[V:2] A,2A,4- | 
[V:3] F,2F,4- | 
[V:4] F,,z/E,,/ E,,z/D,,/ D,,z/C,,/ | 
[V:1] c'z/a/ fz/d/ cz/=e/ | 
[V:2] A,z/A/ Az/A/ Bz/c/ | 
[V:3] F,z/F,/ F,z/F,/ G,z/G,/ | 
[V:4] C,,z/C,/ C,z/C,/ C,z/C,/ | 
[V:1] fz/F/ Fz/G/ Az/B/ | 
[V:2] fz/g/ az/b/c'2- | 
[V:3] [F,2A,2][F,4A,4]- | 
[V:4] F,,z/E,,/ E,,z/D,,/ D,,z/C,,/ | 
[V:1] cz/A/ Fz/D/ Cz/=E/ | 
[V:2] c'z/a/ fz/d/ cz/=e/ | 
[V:3] [F,A,]z/[F,/A,/] [F,A,]z/[F,/A,/] [G,B,]z/C,/ | 
[V:4] C,,z/C,/ C,z/C,,/ C,,z/C,,/ | 
[V:1] Fz/C/C2z2 | 
[V:2] fz/c/c2z2 | 
[V:3] F,z/C,/C,2z2 | 
[V:4] F,,z/C,,/C,,2z2 | 
[V:1] Az/F/F2z2 | 
[V:2] az/f/f2z2 | 
[V:3] A,z/F,/F,2z2 | 
[V:4] A,,z/F,,/F,,2z2 | 
[V:1] fz/c/.A2.c2 | 
[V:2] fz/c/.A2.c2 | 
[V:3] Fz/C/.A,2.C2 | 
[V:4] F,z/C,/.A,,2.C,2 | 
[V:1] .F2z2z2 |]  
[V:2] .F2z2z2 |]  
[V:3] .F,2z2z2 |]  
[V:4] .F,,2z2z2 |]  


